src/view/frontend/web/svg/heroicons/solid/view-grid.svg

<svg viewBox="0 0 20 20" fill="currentColor" xmlns="http://www.w3.org/2000/svg">
<path d="M5 3C3.89543 3 3 3.89543 3 5V7C3 8.10457 3.89543 9 5 9H7C8.10457 9 9 8.10457 9 7V5C9 3.89543 8.10457 3 7 3H5Z" />
<path d="M5 11C3.89543 11 3 11.8954 3 13V15C3 16.1046 3.89543 17 5 17H7C8.10457 17 9 16.1046 9 15V13C9 11.8954 8.10457 11 7 11H5Z" />
<path d="M11 5C11 3.89543 11.8954 3 13 3H15C16.1046 3 17 3.89543 17 5V7C17 8.10457 16.1046 9 15 9H13C11.8954 9 11 8.10457 11 7V5Z" />
<path d="M11 13C11 11.8954 11.8954 11 13 11H15C16.1046 11 17 11.8954 17 13V15C17 16.1046 16.1046 17 15 17H13C11.8954 17 11 16.1046 11 15V13Z" />
</svg>

<svg xmlns="http://www.w3.org/2000/svg" fill="currentColor" viewBox="0 0 20 20"><path d="M5 3a2 2 0 0 0-2 2v2a2 2 0 0 0 2 2h2a2 2 0 0 0 2-2V5a2 2 0 0 0-2-2H5ZM5 11a2 2 0 0 0-2 2v2a2 2 0 0 0 2 2h2a2 2 0 0 0 2-2v-2a2 2 0 0 0-2-2H5ZM11 5a2 2 0 0 1 2-2h2a2 2 0 0 1 2 2v2a2 2 0 0 1-2 2h-2a2 2 0 0 1-2-2V5ZM11 13a2 2 0 0 1 2-2h2a2 2 0 0 1 2 2v2a2 2 0 0 1-2 2h-2a2 2 0 0 1-2-2v-2Z"/></svg>
